X:1
T:Title
%%score { 1 | 2 }
L:1/8
Q:1/4=100
M:3/4
K:D
V:1 treble nm="Grand Piano"
V:2 bass 
V:1
 F2 F2 F2 | A3 B A2 | [CA]2 [CE]2 [CG]2 | F6 | B2 B2 B2 | [FA]3 [EG] [DF]2 | [EA]2 [EG]2 [DF]2 | %7
w: C.~F.~Green * *|||||||
 [CE]6 | [CE]2 [CA]2 [CE]2 | [DF]3 [EG] [DF]2 | [FA]2 [Fd]2 [FA]2 | B6 | d2 c2 B2 | A3 G F2 | %14
w: |||||||
 [CG]2 [CF]2 [CE]2 | D6 | [FA]2 [FA]2 [FA]2 | [Fd]4 [Fd]2 | [EGc]2 [EGB]2 [EGc]2 | [Fd]6 | %20
w: ||||||
 [Fd]2 [Ac]2 [GB]2 | [FA]3 [EG] F2 | B2 A2 F2 | [A,CE]6 | [CGA]2 [DGB]2 [EGc]2 | [DFd]4 [Fd]2 | %26
w: ||||||
 c2 B2 c2 | [Fd]6 | [Fd]2 [Ac]2 [GB]2 | [FA]3 [EG] [DF]2 | [CG]2 [CF]2 [CE]2 | D6 |] %32
w: ||||||
V:2
 [D,A,D]2 [D,A,D]2 [D,A,D]2 | [D,F,D]3 [D,G,D] [D,F,D]2 | [A,,A,]2 [A,,A,]2 [A,,A,]2 | [D,A,D]6 | %4
 [G,D]2 [G,D]2 [G,D]2 | [D,A,]3 [D,A,] [D,A,]2 | [C,A,]2 [C,A,]2 [D,A,]2 | [A,,A,]6 | %8
 [A,,A,]2 [A,,E,]2 [A,,A,]2 | [D,A,]3 [D,A,] [D,A,]2 | [D,D]2 [D,A,]2 [D,D]2 | [G,DG]6 | %12
 [G,B,G]2 [G,CG]2 [G,DG]2 | [A,DF]3[K:bass] [A,E] [A,D]2 | [A,,A,]2 [A,,A,]2 [A,,G,]2 | [D,F,]6 | %16
 [D,D]2 [D,D]2 [D,D]2 | [D,A,]4 [D,A,]2 | A,,2 A,,2 A,,2 | [D,A,D]6 | [D,A,]2 [D,A,]2 [D,D]2 | %21
 [D,D]3 [D,A,] [D,A,D]2 | [D,G,D]2 [D,F,D]2 [D,A,D]2 | A,,6 | A,,2 A,,2 A,,2 | D,4 [D,A,]2 | %26
 [A,G]2 [A,G]2 [A,G]2 | [D,A,]6 | [D,A,]2 [D,A,]2 [D,D]2 | [D,D]3 [D,A,] [D,A,]2 | %30
 [A,,A,]2 [A,,A,]2 [A,,G,]2 | [D,F,]6 |] %32

